X: 1
T: Paul Revere's Ride
C: J-44
C: Bruce A. Randall  1994
M: 6/8
Z: Transcribed to abc by Mary Lou Knack
R: jig
K: Em
E| "Em"B,EF GEA| BED EGA| "G"Bde dBG| "Em"EGB "D"A2F|
   "Em"B,EF GEA| BED EGA| "G"Bde dBA| "Em"BGE E2 :|
|:\
B/d/| "Em"efd edA| BED EGA| Bef gba| gfe "D"f2g/a/|
      "G"bab "Em"geg| "D"afe dfa| "G"bag "Bm"fdB| "D"ABd "Em"e2 :|
%%text 9/1/98
